X:62
T: SO NIMM IHN HIN
N: B0546B
O: Europa, Mitteleuropa, Deutschland
R: Studenten -, Burschenschafts - Lied, national
M: 2/4
L: 1/16
K: F
C2 | F4A4 | c4z2
c2 | c2G2G2B2 | B2A2F2
c2 | c2G2G2B2 | B2A2F2
c2 | d2c2B2A2 | c4c4 | A4z2
c2 | d2c2B2A2 | c4c4 | F4z2
c2 | c3cc2A2 | d4d2
c2 | B2A2B2G2 | c4c2
C2 | F2G2A2B2 | c4c4 | F4z2

@@@ Tune index: 2280
